nextcloudappstore/core/static/assets/img/icons/categories/clipboard-flow.svg

<svg width="20" height="20" fill="none" style="-webkit-print-color-adjust:exact" version="1.1" viewBox="-0 0 20 20" xmlns="http://www.w3.org/2000/svg"><g rx="0" ry="0" fill="#000"><g class="fills"><path rx="0" ry="0" d="m15.833 2.5h-3.483c-0.35-0.967-1.267-1.667-2.35-1.667s-2 0.7-2.35 1.667h-3.483c-0.921 0-1.667 0.746-1.667 1.667v11.666c0 0.921 0.746 1.667 1.667 1.667h11.666c0.921 0 1.667-0.746 1.667-1.667v-11.666c0-0.921-0.746-1.667-1.667-1.667zm-5.833 0c0.46 0 0.833 0.373 0.833 0.833 0 0.461-0.373 0.834-0.833 0.834s-0.833-0.373-0.833-0.834c0-0.46 0.373-0.833 0.833-0.833zm2.5 13.333-3.333-3.333h2.5v-5.833h1.666v5.833h2.5l-3.333 3.333zm-4.167-2.5h-1.666v-5.833h-2.5l3.333-3.333 3.333 3.333h-2.5v5.833z" fill="#007bbd"/></g></g></svg>

<svg xmlns:xlink="http://www.w3.org/1999/xlink" width="20" xmlns="http://www.w3.org/2000/svg" height="20" id="screenshot-db15cf86-6f9e-8025-8002-bbab9ed6fdc0" viewBox="-0 0 20 20" style="-webkit-print-color-adjust: exact;" fill="none" version="1.1"><g id="shape-db15cf86-6f9e-8025-8002-bbab9ed6fdc0" rx="0" ry="0" style="fill: rgb(0, 0, 0);"><g id="shape-db15cf86-6f9e-8025-8002-bbab9ed6fdc2"><g class="fills" id="fills-db15cf86-6f9e-8025-8002-bbab9ed6fdc2"><path rx="0" ry="0" d="M15.833,2.500L12.350,2.500C12.000,1.533,11.083,0.833,10.000,0.833C8.917,0.833,8.000,1.533,7.650,2.500L4.167,2.500C3.246,2.500,2.500,3.246,2.500,4.167L2.500,15.833C2.500,16.754,3.246,17.500,4.167,17.500L15.833,17.500C16.754,17.500,17.500,16.754,17.500,15.833L17.500,4.167C17.500,3.246,16.754,2.500,15.833,2.500ZM10.000,2.500C10.460,2.500,10.833,2.873,10.833,3.333C10.833,3.794,10.460,4.167,10.000,4.167C9.540,4.167,9.167,3.794,9.167,3.333C9.167,2.873,9.540,2.500,10.000,2.500ZM12.500,15.833L9.167,12.500L11.667,12.500L11.667,6.667L13.333,6.667L13.333,12.500L15.833,12.500L12.500,15.833ZM8.333,13.333L6.667,13.333L6.667,7.500L4.167,7.500L7.500,4.167L10.833,7.500L8.333,7.500L8.333,13.333Z" style="fill: rgb(0, 123, 189); fill-opacity: 1;"/></g></g></g></svg>
